X:145
T:The Golden Oak Waltz
R:waltz
C:Bruce Osborne - July 2002
Z:bosborne@kos.net
M:3/4
L:1/8
K:Fmaj
cB|AF EF CD|F3 c =Bc|fe fa gf|d3 f ed|
cA FA ce|fe fa gf|ed ef ga|g4 cB|
AF EF CD|F3 c =Bc|fe fa gf|d3 f ed|
cA FA ce|fe fa gf|ed ef ge|f4:|
|:cB|AF EF Ac|f4 cB|AF EF Ac|B4 GF|
ED EF GA|BA Bc ed|cd cB A^G|A4 cB|
AF EF Ac|f4 cB|AF EF Ac|B4 GF|
ED EF GA|BA Bc ed|cd cB GE|F4:|
